X: 8
T: Spy, The
M: 6/8
L: 1/8
R: jig
K: Emin
|: EGB ^A2 B | EGB ^A2 B | eBB eBB | BcA G2 F |
EGB ^A2 B | EGB ^A2 B | eBB eBB | G2 F E3 :|
|: eBe gfe | fdf agf | eBe gfe | fBB c2 B |
eBe gfe | fdf agf | BeB cBA | G2 F E3 :|
